!!!COM: Music21
!!!OTL: reel_Boy-In-The-Tree--The
!!!OMV: reel_Boy-In-The-Tree--The
**kern
*clefG2
*k[f#]
*M4/4
=1
8bL
8ddJ
=||
8eeL
8bJ
8ddL
8bJ
8gL
8aJ
8bL
8ddJ
=
8ee
4.b
8aL
8gJ
8eL
8dJ
=
8eL
8bJ
8aL
8gJ
8aL
8bJ
8ccL
8ddJ
=
8eeL
8aaJ
8ggL
8eeJ
4dd
8bL
8ddJ
=
8eeL
8bJ
8ddL
8bJ
8aL
8gJ
8eL
8dJ
!!linebreak:original
=
8gL
8dJ
8bL
8dJ
8gL
8aJ
8bL
8ddJ
=
4ee
8ddL
8bJ
8gL
8aJ
8bL
8ddJ
=
8eeL
8ggJ
8ddL
8bJ
8aL
8bJ
8ccL
8ddJ
=||
8eeL
8bJ
8ddL
8bJ
8gL
8aJ
8bL
8ddJ
=
8ee
4.b
8aL
8gJ
8eL
8dJ
!!linebreak:original
=
8eL
8bJ
8aL
8gJ
8aL
8bJ
8ccL
8ddJ
=
8eeL
8aaJ
8ggL
8eeJ
4dd
8bL
8ddJ
=
8eeL
8bJ
8ddL
8bJ
8aL
8gJ
8eL
8dJ
=
8gL
8dJ
8bL
8dJ
8gL
8aJ
8bL
8ddJ
=
4ee
8ddL
8bJ
8gL
8aJ
8bL
8ddJ
!!linebreak:original
=
8eeL
8ggJ
8ddL
8bJ
8aL
8bJ
8ccL
8ddJ
=||
4ee
8aaL
8eeJ
8bbL
8eeJ
8aaL
8eeJ
=
8ddL
8eeJ
8ddL
8bJ
8gL
8aJ
8bL
8ddJ
=
4ee
8aaL
8eeJ
8bbL
8eeJ
8aaL
8eeJ
=
8ddL
8bJ
8gL
8bJ
8aL
8bJ
8ccL
8ddJ
!!linebreak:original
=
8ee
4.aa
8ggL
8aaJ
8ff#L
8aaJ
=
8bL
8ccJ
8ddL
8bJ
8gL
8aJ
8bL
8ddJ
=
8ee
4aa
8ff#
12ggL
12ff#
12eeJ
8ddL
8bJ
=
8gL
8aJ
8bL
8gJ
8aL
8bJ
8ccL
8ddJ
=||
4ee
8aaL
8eeJ
8bbL
8eeJ
8aaL
8eeJ
!!linebreak:original
=
8ddL
8eeJ
8ddL
8bJ
8gL
8aJ
8bL
8ddJ
=
4ee
8aaL
8eeJ
8bbL
8eeJ
8aaL
8eeJ
=
8ddL
8bJ
8gL
8bJ
8aL
8bJ
8ccL
8ddJ
=
8ee
4.aa
8ggL
8aaJ
8ff#L
8aaJ
=
8bL
8ccJ
8ddL
8bJ
8gL
8aJ
8bL
8ddJ
!!linebreak:original
=
8ee
4aa
8ff#
12ggL
12ff#
12eeJ
8ddL
8bJ
=
8gL
8aJ
8bL
8gJ
8aL
8bJ
8ccL
8ddJ
=||
*-
